X:1
T:Title
%%score 1 2 3 4
L:1/8
Q:1/4=150
M:4/4
K:C
V:1 treble nm="Grand Piano"
V:2 treble nm="Grand Piano"
V:3 bass nm="Grand Piano, Melody"
V:4 bass nm="Grand Piano"
V:1
 A8 | A2 A2 d2 cd | e6 e2 | c2 A2 G2 E2 | A6 z2 | z8 | z8 | z4 z2 c2 | e2 e2 e2 g2 | e2 e2 e2 cA | %10
 G2 E2 G2 G2 | A8 |] %12
V:2
 E8 | E2 E2 G2 GA | G6 E2 | G2 F2 E2 E2 | E6 z2 | z8 | z4 z2 E2 | A2 A2 A2 GF | E2 EF G4 | G6 G2 | %10
 G2 GF E2 E2 | E8 |] %12
V:3
 A,8 | A,2 C2 B,2 A,2 | E6 G2 | E2 DC B,2 z2 | A,6 z2 | z4 z2 C2 | D2 D2 D2 G2 | %7
 E2 E2 E2 C[K:bass]A, | G,2 E,2 C2 E2 | E6 G2 | E2 DC B,2 A,G, | A,8 |] %12
V:4
 A,8 | C2 A,2 G,2 A,2 | E,6 E,2 | C,2 D,2 E,2 E,2 | A,,6 A,,2 | E,2 E,2 E,2 C,2 | G,2 G,2 G,2 E,2 | %7
 A,2 A,2 A,2 C2 | B,2 A,G, E,4 | E,6 E,2 | C,2 D,2 E,2 E,2 | A,,8 |] %12

